X:1
T:O Be Saved
T:O Be Saved
T:Silas Jones Vail
T:Frances Jane (Fanny) Crosby, 1874
T:Public Domain Courtesy of the Cyber Hymnal™
T:Public Domain Courtesy of the Cyber Hymnal™
C:Silas Jones Vail
Z:Public Domain
Z:Courtesy of the Cyber Hymnal™
%%score ( 1 2 ) ( 3 4 )
L:1/8
Q:1/4=135
M:6/4
K:F
V:1 treble 
V:2 treble 
V:3 bass 
V:4 bass 
V:1
 F4 [FA]2 [Ac]4 [FA]2 | [FA]4 [EG]2 [EG]2 F4 | [FB]4 [FB]2 [FA]4 [FA]2 | [CG]4 F2 [EG]6 | %4
w: 1.~Sin- ner, how thy|heart is trou- bled,|God is com- ing|ver- y near;|
w: 2.~Je- sus now is|bend- ing o’er thee,|Je- sus low- ly,|meek and mild;|
w: 3.~Art thou wait- ing|till the mor- row?|Thou may’st ne- ver|see its light;|
w: 4.~With a low- ly,|con- trite spir- it,|Kneel- ing at the|Sav- ior’s feet;|
w: 5.~Let the an- gels|bear the tid- ings,|Up- ward to the|courts of Heav’n;|
 F4 [FA]2 [Ac]4 [FA]2 | [FA]4 [EG]2 [EG]2 F4 | [FB]4 [FB]2 [FA]4 F2 | [FA]4 [EG]2 F6 || %8
w: Do not hide thy|deep e- mo- tion,|Do not check that|fall- ing tear.|
w: To the friend who|died to save thee,|Canst thou not be|re- con- ciled?|
w: Come at once— ac-|cept His mer- cy,|He is wait- ing—|come to- night.|
w: Thou canst feel this|ver- y mo- ment,|Par- don— pre- cious,|pure and sweet.|
w: Let them sing, with|ho- ly rap- ture,|O’er a- no- ther|soul for- giv’n.|
"^Refrain" [Fd]4 [Fd]2 [Fc]4 [FA]2 | [Ec]4 [Ec]2 [FA]6 | [GB]4 [GB]2 [FA]4 [FA]2 | %11
w: |||
w: |||
w: O be saved, His|grace is free;|O be saved, He|
w: |||
w: |||
 [EG]4 =B2 [Ec]6 | F4 [FA]2 [Ac]4 [FA]2 | [FA]4 [EG]2 F6 |] %14
w: |||
w: |||
w: died for thee;|O be saved, He|died for thee.|
w: |||
w: |||
V:2
 F4 x8 | x8 F4 | x12 | x4 F2 x6 | F4 x8 | x8 F4 | x10 F2 | x6 F6 || x12 | x12 | x12 | x4 (DF) x6 | %12
 F4 x8 | x6 F6 |] %14
V:3
 [F,A,]4 [F,C]2 [F,C]4 [F,C]2 | [C,C]4 [C,B,]2 [F,B,]2 [F,A,]4 | [F,D]4 [F,D]2 [F,C]4 [F,C]2 | %3
w: ~ ~ ~ ~|~ ~ ~ ~|~ ~ ~ ~|
 [E,C]4 [D,=B,]2 [C,C]6 | [F,A,]4 [F,C]2 [F,C]4 [F,C]2 | [C,C]4 [C,B,]2 [F,B,]2 [F,A,]4 | %6
w: ~ ~ ~|~ ~ ~ ~|~ ~ ~ ~|
 [B,,D]4 [B,,D]2 [C,C]4 [C,A,]2 | [C,C]4 [C,B,]2 [F,A,]6 || [B,,B,]4 [B,,B,]2 [F,A,]4 [F,A,]2 | %9
w: ~ ~ ~ ~|~ ~ ~||
 [C,G,]4 [C,C]2 [F,C]6 | [E,C]4 [E,C]2 [F,C]4 [F,C]2 | [G,C]4 G,2 [C,G,]6 | %12
w: |||
 [F,A,]4 [F,C]2 [F,C]4 [F,C]2 | [C,C]4 [C,B,]2 [F,A,]6 |] %14
w: ||
V:4
 x12 | x12 | x12 | x12 | x12 | x12 | x12 | x12 || x12 | x12 | x12 | x4 G,2 x6 | x12 | x12 |] %14

